X:228
T:The Handsome Young Maidens
C:Charlie Lennon
R:jig
M:6/8
L:1/8
K:A
aed cdB | Ace aga | bee dee | bee bag |
aed cdB | Ace aga | bge dBG | ABA A3 :|
c2A EAc | d2f fed | cde aec | B2f fed |
c2A EAc | d2f fed | cde aec | dBG A2B |
c2A EAc | d2f fed | cde aec | B2f fed |
c2A EAc | d2f fed | e2e fef | gfg bag |]
